X: 1
T: Jungfru, jungfru
T: Karusellen
O: Denmark
M: C
L: 1/8
K: C
z \
| "C"G2 G2 G2 G2 | c>G EA G2 z2 | "G7"A>G FE F2 F2 | G>F ED "C"E2 E2 |
| "C"G>G GG G2 GG | c2 E>F G2 G>G | "Dm"A2 A>A "G7"B2 B>B | "C"c>c cc c3 ||
|: E | "C"G2 G2 G2 z>G | "Am"A2 A>A A2 z>A | "G7"B>B B>G AB |"C"c2 c>c c3 :|
